material/.icons/material/comment-edit-outline.svg

<svg xmlns="http://www.w3.org/2000/svg" viewBox="0 0 24 24"><path d="M9 22c-.55 0-1-.45-1-1v-3H4a2 2 0 01-2-2V4a2 2 0 012-2h16a2 2 0 012 2v12c0 1.11-.89 2-2 2h-6.1l-3.7 3.71c-.2.19-.45.29-.7.29H9m1-6v3.08L13.08 16H20V4H4v12h6m5.84-7.8l-1.01 1.01-2.07-2.03 1.01-1.02c.2-.21.54-.22.78 0l1.29 1.25c.21.21.22.55 0 .79M8 11.91l4.17-4.19 2.07 2.08-4.16 4.2H8v-2.09z"/></svg>

<?xml version="1.0" encoding="UTF-8"?><!DOCTYPE svg PUBLIC "-//W3C//DTD SVG 1.1//EN" "http://www.w3.org/Graphics/SVG/1.1/DTD/svg11.dtd"><svg xmlns="http://www.w3.org/2000/svg" xmlns:xlink="http://www.w3.org/1999/xlink" version="1.1" id="mdi-comment-edit-outline" width="24" height="24" viewBox="0 0 24 24"><path d="M9 22C8.45 22 8 21.55 8 21V18H4C2.9 18 2 17.11 2 16V4C2 2.89 2.9 2 4 2H20C21.11 2 22 2.9 22 4V16C22 17.11 21.11 18 20 18H13.9L10.2 21.71C10 21.9 9.75 22 9.5 22H9M10 16V19.08L13.08 16H20V4H4V16H10M15.84 8.2L14.83 9.21L12.76 7.18L13.77 6.16C13.97 5.95 14.31 5.94 14.55 6.16L15.84 7.41C16.05 7.62 16.06 7.96 15.84 8.2M8 11.91L12.17 7.72L14.24 9.8L10.08 14H8V11.91Z" /></svg>
